X:6
T:O Holy Night!
C:John Dwight / Adolphe Adam
M:4/4
L:1/8
Q:1/4=88
K:D
F2 F>F | A2-A>A B>B G>B | d4 A z/2 A/2 F>E | D2 F>G A2 G>E D8- | D4
w:O ho-ly night!_ the starts are bright-ly shin-ing, It is the night of the dear Sav-ior's birth;_
F2 F>F | A-A>A B>B G>B | d4 A z/2 A/2 ^G>F | c2 A>B c2 d>c | F4 z3
w:Long lay the world* in sin and er-ror pin-ing, Till He ap-peared and the soul felt its worth.
A | A2 B2 E2 A2 | B>A d>F B2 A z/2 A/2 | A2 B2 E2 A2 | B>A d>F A3 z |
w:A thrill of hope the wea-ry world re-joic-es, For yon-der breaks a new and glo-rious morn;
d6 c>B | c6 z c | e4- e>B B>B | d4 d2 z d | (f4 e3) A | d4-(d2c3/2)
w:Fall on your knees, Oh, hear* the an-gel voic-es! O night* di-vine,**
B/2 | A4-A>A B>A | A6 d | e6 e2 | f6 e2 | d4 c2 d>e | d6 z2 |]
w:O night* when Christ was born! O night, O ho-ly night, O night di-vine!
W:2 Led by the light of faith serenely beaming, With glowing hearts by His cradle we stand;
W:So led by light of a star sweetly gleaming, Here came the wise men from Orient land.
W:The King of kings lay thus in lowly manger, In all our trials born to be our Friend;
W:He knows our need, To our weakness is no stranger. Behold your King,
W:before Him lowly bend! Behold your King, before Him lowly bend!
W:3 Truly he taught us to love one another; His law is love and his gospel is peace;
W:Chains shall He break, for the slave is our brother, And in His name all oppression shall cease.
W:Sweet hymns of joy in grateful chorus raise we, Let all within us praise His holy name;
W:Christ is the Lord, Oh, praise His name forever! His pow'r and glo-
W:ry ever more proclaim! His pow'r and glory ever more proclaim.

